X:1
T:Standin In The Need of Prayer
T:My Lord what a mourning
T:Copyright 1881 by The Riverside Press
T:Rodeheaver's Plantation Melodies
T:Rodeheaver's Plantation Melodies
Z:Rodeheaver's Plantation Melodies
%%score [ 1 2 3 4 ]
L:1/8
Q:1/4=100
M:4/4
K:D
V:1 treble nm="Soprano" snm="S."
V:2 treble nm="Alto" snm="A."
V:3 bass nm="Tenor" snm="T."
V:4 bass nm="Bass" snm="B."
V:1
 F2 F4 EF | D2 D6 | A2 A4 FA | E2 E6 | A2 F4 GE | D2 D4 GG | F3 D E2 E2 | D6 D2 | F3 F F E3 | %9
w: |||||||* You'll|hear the trum- pet|
w: |||||||* You'll|hear the sin- ner|
w: |||||||* You'll|hear the chirs- tian|
 D3 D F2 A2 | B2 A2 G2 F2 | E8 | FFFF G2 E2 | D4 G2 G2 | F3 D E2 E2 | D8 |] %16
w: sound. To wake the|na- tions un- der-|ground.|Loo- king to my God's right|hand. * *|||
w: mourn. * * *|||||||
w: shout. * * *|||||||
V:2
 D2 D4 CD | D2 D6 | F2 F4 DD | C2 C6 | F2 D4 DD | D2 D4 EE | D3 D C2 C2 | D6 z2 | z8 | z8 | z8 | %11
w: My Lord what a|mour- ning.|My Lord what a|mour- ning.|My Lord what a|mour- ning. When the|stars be- gin to|fall.||||
 z8 | z8 | z4 E2 E2 | D3 D C2 C2 | D8 |] %16
w: ||When the|stars be- gin to|fall.|
V:3
 A,2 A,4 G,A, | F,2 F,6 | D2 D4 A,F, | A,2 A,6 | C2 D4 B,B, | A,2 A,4 B,B, | A,3 F, G,2 G,2 | %7
 F,6 z2 | z8 | z8 | z8 | z8 | z8 | z4 B,2 B,2 | A,3 F, G,2 G,2 | F,8 |] %16
V:4
 D,2 D,4 D,D, | D,2 D,6 | D,2 D,4 D,D, | A,,2 A,,6 | A,,2 D,4 G,,G,, | F,,2 F,,4 G,,G,, | %6
 A,,3 A,, A,,2 A,,2 | D,6 z2 | z8 | z8 | z8 | z8 | z8 | z4 G,,2 G,,2 | A,,3 A,, A,,2 A,,2 | D,8 |] %16

